X: 10183
T: 3. BOB JOHNSTONE'S STRATHSPEY
C: A. W. Doig
R: strathspey
B: K\"ohler's Violin Repository, v.1, 1885 p.18 #3
F: http://www.archive.org/details/klersviolinrepos01edin
Z: 2011 John Chambers <jc:trillian.mit.edu>
N: Spaces added to break long beams for readability.
M: C
L: 1/8
K: A
uc |\
E<A (A>B) ({AB}c>B) A<E | (C>E) (A,>A) G>A B<c | E<A (A>B) (c>d) e><f | e>c d/c/B/A/ G<B B>c |
E<A (A>B) ({AB}c>B) A<E | (C>E) (A,>A) (.G>.A) (.B>.c) | (3def (3agf (3edc (3def | e<E (GB) A2 A ||
ud |\
c<e (a>b) (a>g) f<e | f<a (A>c) {c}(B>A) B<d | c<e (a>b) (a>g) f>e | (.d>.c) (E>e) c<A A>d |
c<e (a>b) (a>g) f<e | f<a (e>c) {c}(B>A) Bc | A>B A<E (.d>.e) (.f>.a) | (3efd (3Bcd "_Segue Reel"cA A |]

%%sep 2 1 500

